example_workflows/warm_demo.cube
TITLE "warm demo"
LUT_3D_SIZE 2
0.00 0.00 0.00
1.05 0.00 0.00
0.00 0.95 0.00
1.05 0.95 0.00
0.00 0.00 0.90
1.05 0.00 0.90
0.00 0.95 0.90
1.05 0.95 0.90
